T: Ye Buddin' Bodhranistas
M: 6/8
L: 1/8
K: Dmaj
|: A2 f fed | A2 f fed | Ace GAd | FAd EAc |A2 f fed |
Af/f/f fed |[1 Ace GAd | Ace gec :|[2 Ace Gec | gec de/f/g ||
|: a2 a agf | aba agf | Ace G2 d | F2 d EG/A/B |
[1 A2 a agf | Aa/a/a agf | Ace Gec | gec de/f/g :|
[2 A2 f agf | agf aba | aec gdB | AA/B/c dcB |]
</html>
</html>
